img/logo.svg

<svg width="183" height="35" viewBox="0 0 183 35" fill="none" xmlns="http://www.w3.org/2000/svg">
<path d="M32.9745 16.0099V15.1478C32.6609 6.33016 25.2739 0 16.4137 0C7.37047 0 0 7.40051 0 16.4806C0 25.5606 7.37047 32.9611 16.4137 32.9611C20.8046 32.9611 24.7773 31.2291 27.7307 28.4211L32.9991 35L32.9745 17.4877C33.0007 17.1728 32.9745 16.8436 32.9745 16.5025C32.9745 16.45 32.9745 16.0886 32.9745 16.0099ZM16.4137 27.5551C10.35 27.5551 5.41024 22.5952 5.41024 16.5068C5.41024 10.4184 10.35 5.45853 16.4137 5.45853C22.4773 5.45853 27.4171 10.4184 27.4171 16.5068C27.4171 22.5952 22.4773 27.5551 16.4137 27.5551Z" fill="#0F67FE"/>
<path d="M49.3915 29V21.9724L49.8863 22.5714C49.4464 23.2473 48.8338 23.7696 48.0483 24.1383C47.2629 24.4916 46.4068 24.6682 45.4799 24.6682C44.2389 24.6682 43.1315 24.384 42.1575 23.8157C41.1835 23.232 40.4138 22.4409 39.8483 21.4424C39.2828 20.4439 39 19.3379 39 18.1244C39 16.8955 39.2828 15.7896 39.8483 14.8065C40.4138 13.8233 41.1835 13.0399 42.1575 12.4562C43.1472 11.8725 44.2468 11.5806 45.4564 11.5806C46.4303 11.5806 47.2943 11.7727 48.0483 12.1567C48.8181 12.5253 49.4229 13.0476 49.8627 13.7235L49.5564 14.3456V11.8571H52.4783V29H49.3915ZM45.8098 21.9032C46.5167 21.9032 47.1372 21.7419 47.6713 21.4194C48.2054 21.0968 48.6217 20.6513 48.9202 20.083C49.2344 19.5146 49.3915 18.8618 49.3915 18.1244C49.3915 17.4025 49.2344 16.7573 48.9202 16.1889C48.6217 15.6052 48.2054 15.1521 47.6713 14.8295C47.1372 14.5069 46.5167 14.3456 45.8098 14.3456C45.1186 14.3456 44.4981 14.5146 43.9483 14.8525C43.3985 15.1751 42.9665 15.6206 42.6523 16.1889C42.3539 16.7419 42.2046 17.3871 42.2046 18.1244C42.2046 18.8618 42.3539 19.5146 42.6523 20.083C42.9665 20.6513 43.3985 21.0968 43.9483 21.4194C44.4981 21.7419 45.1186 21.9032 45.8098 21.9032Z" fill="#00226C"/>
<path d="M61.0995 24.6682C60.1099 24.6682 59.2459 24.4531 58.5076 24.023C57.7849 23.5929 57.2273 22.9939 56.8345 22.2258C56.4575 21.4578 56.269 20.5591 56.269 19.53V11.8571H59.3558V19.2765C59.3558 19.7988 59.4579 20.2596 59.6622 20.659C59.8821 21.043 60.1884 21.3502 60.5811 21.5806C60.9896 21.7957 61.4451 21.9032 61.9478 21.9032C62.4505 21.9032 62.8982 21.7957 63.2909 21.5806C63.6836 21.3502 63.99 21.0353 64.2099 20.6359C64.4298 20.2366 64.5398 19.7604 64.5398 19.2074V11.8571H67.6266V24.3917H64.7047V21.9263L64.9639 22.3641C64.6655 23.1321 64.1706 23.7081 63.4794 24.0922C62.8039 24.4762 62.0106 24.6682 61.0995 24.6682Z" fill="#00226C"/>
<path d="M75.5621 24.6682C74.6667 24.6682 73.8891 24.5223 73.2293 24.2304C72.5696 23.9386 72.059 23.5238 71.6977 22.9862C71.3364 22.4332 71.1558 21.7957 71.1558 21.0737C71.1558 20.3825 71.3128 19.7681 71.627 19.2304C71.9412 18.6774 72.4282 18.2166 73.088 17.8479C73.7477 17.4793 74.5803 17.2181 75.5857 17.0645L79.78 16.3963V18.7005L76.1748 19.2995C75.5621 19.4071 75.1066 19.5991 74.8081 19.8756C74.5096 20.1521 74.3604 20.5131 74.3604 20.9585C74.3604 21.3886 74.5253 21.7343 74.8552 21.9954C75.2008 22.2412 75.625 22.3641 76.1276 22.3641C76.7717 22.3641 77.3372 22.2335 77.8242 21.9724C78.3269 21.6959 78.7118 21.3195 78.9788 20.8433C79.2616 20.3671 79.403 19.8449 79.403 19.2765V16.0507C79.403 15.5131 79.183 15.0676 78.7432 14.7143C78.319 14.3456 77.7535 14.1613 77.0466 14.1613C76.3868 14.1613 75.7977 14.3379 75.2794 14.6912C74.7767 15.0292 74.4075 15.4823 74.1719 16.0507L71.6506 14.8525C71.9019 14.192 72.2947 13.6237 72.8288 13.1475C73.3786 12.6559 74.0226 12.2719 74.761 11.9954C75.4993 11.7189 76.3004 11.5806 77.1644 11.5806C78.2169 11.5806 79.1438 11.7727 79.9449 12.1567C80.7461 12.5253 81.3666 13.0476 81.8064 13.7235C82.262 14.384 82.4898 15.1598 82.4898 16.0507V24.3917H79.5679V22.2488L80.2277 22.2028C79.8978 22.7404 79.5051 23.1935 79.0495 23.5622C78.5939 23.9155 78.0755 24.192 77.4943 24.3917C76.9131 24.576 76.269 24.6682 75.5621 24.6682Z" fill="#00226C"/>
<path d="M86.5209 24.3917V11.8571H89.4192V14.6452L89.1836 14.2304C89.4821 13.2934 89.9455 12.6406 90.5738 12.2719C91.2179 11.9032 91.9876 11.7189 92.8831 11.7189H93.6371V14.3917H92.5296C91.6499 14.3917 90.943 14.6605 90.4089 15.1982C89.8748 15.7204 89.6077 16.4578 89.6077 17.4101V24.3917H86.5209Z" fill="#00226C"/>
<path d="M102.701 24.53C101.256 24.53 100.133 24.1459 99.3317 23.3779C98.5462 22.5945 98.1535 21.4962 98.1535 20.083V14.553H95.9386V11.8571H96.1742C96.8026 11.8571 97.2895 11.6959 97.6351 11.3733C97.9807 11.0507 98.1535 10.5822 98.1535 9.96774V9H101.24V11.8571H104.186V14.553H101.24V19.9217C101.24 20.3364 101.311 20.6897 101.452 20.9816C101.609 21.2734 101.845 21.4962 102.159 21.6498C102.489 21.8034 102.905 21.8802 103.408 21.8802C103.518 21.8802 103.644 21.8725 103.785 21.8571C103.942 21.8418 104.092 21.8264 104.233 21.8111V24.3917C104.013 24.4224 103.762 24.4531 103.479 24.4839C103.196 24.5146 102.937 24.53 102.701 24.53Z" fill="#00226C"/>
<path d="M106.662 24.3917V21.9493L114.108 13.5161L114.579 14.553H106.992V11.8571H117.313V14.3226L110.008 22.7558L109.537 21.7189H117.36V24.3917H106.662Z" fill="#00226C"/>
<path d="M120.292 29V11.8571H123.19V14.3456L122.908 13.7235C123.347 13.0476 123.944 12.5253 124.698 12.1567C125.452 11.7727 126.324 11.5806 127.314 11.5806C128.524 11.5806 129.615 11.8725 130.589 12.4562C131.563 13.0399 132.333 13.8233 132.898 14.8065C133.48 15.7896 133.77 16.8955 133.77 18.1244C133.77 19.3379 133.488 20.4439 132.922 21.4424C132.357 22.4409 131.587 23.232 130.613 23.8157C129.639 24.384 128.531 24.6682 127.29 24.6682C126.364 24.6682 125.507 24.4916 124.722 24.1383C123.952 23.7696 123.34 23.2473 122.884 22.5714L123.379 21.9724V29H120.292ZM126.937 21.9032C127.644 21.9032 128.272 21.7419 128.822 21.4194C129.372 21.0968 129.796 20.6513 130.094 20.083C130.409 19.5146 130.566 18.8618 130.566 18.1244C130.566 17.3871 130.409 16.7419 130.094 16.1889C129.796 15.6206 129.372 15.1751 128.822 14.8525C128.272 14.5146 127.644 14.3456 126.937 14.3456C126.261 14.3456 125.649 14.5069 125.099 14.8295C124.565 15.1521 124.141 15.6052 123.827 16.1889C123.528 16.7573 123.379 17.4025 123.379 18.1244C123.379 18.8618 123.528 19.5146 123.827 20.083C124.141 20.6513 124.565 21.0968 125.099 21.4194C125.649 21.7419 126.261 21.9032 126.937 21.9032Z" fill="#00226C"/>
<path d="M137.302 24.3917V11.8571H140.2V14.6452L139.965 14.2304C140.263 13.2934 140.726 12.6406 141.355 12.2719C141.999 11.9032 142.769 11.7189 143.664 11.7189H144.418V14.3917H143.311C142.431 14.3917 141.724 14.6605 141.19 15.1982C140.656 15.7204 140.389 16.4578 140.389 17.4101V24.3917H137.302Z" fill="#00226C"/>
<path d="M153.561 24.6682C152.304 24.6682 151.158 24.384 150.121 23.8157C149.1 23.2473 148.283 22.4716 147.67 21.4885C147.073 20.5054 146.775 19.384 146.775 18.1244C146.775 16.8648 147.073 15.7435 147.67 14.7604C148.283 13.7773 149.1 13.0015 150.121 12.4332C151.142 11.8648 152.289 11.5806 153.561 11.5806C154.818 11.5806 155.957 11.8648 156.978 12.4332C157.999 13.0015 158.808 13.7773 159.405 14.7604C160.018 15.7281 160.324 16.8495 160.324 18.1244C160.324 19.384 160.018 20.5054 159.405 21.4885C158.792 22.4716 157.975 23.2473 156.954 23.8157C155.933 24.384 154.802 24.6682 153.561 24.6682ZM153.561 21.9032C154.252 21.9032 154.857 21.7419 155.376 21.4194C155.91 21.0968 156.326 20.6513 156.624 20.083C156.939 19.4992 157.096 18.8464 157.096 18.1244C157.096 17.3871 156.939 16.7419 156.624 16.1889C156.326 15.6206 155.91 15.1751 155.376 14.8525C154.857 14.5146 154.252 14.3456 153.561 14.3456C152.854 14.3456 152.234 14.5146 151.7 14.8525C151.166 15.1751 150.741 15.6206 150.427 16.1889C150.129 16.7419 149.98 17.3871 149.98 18.1244C149.98 18.8464 150.129 19.4992 150.427 20.083C150.741 20.6513 151.166 21.0968 151.7 21.4194C152.234 21.7419 152.854 21.9032 153.561 21.9032Z" fill="#00226C"/>
<path d="M163.843 24.3917V11.8571H166.741V14.7604L166.411 14.2765C166.647 13.3702 167.118 12.6943 167.825 12.2488C168.532 11.8034 169.365 11.5806 170.323 11.5806C171.375 11.5806 172.302 11.8495 173.103 12.3871C173.905 12.9247 174.423 13.6313 174.659 14.5069L173.787 14.576C174.179 13.5776 174.769 12.8326 175.554 12.341C176.339 11.8341 177.243 11.5806 178.264 11.5806C179.175 11.5806 179.984 11.7803 180.691 12.1797C181.413 12.5791 181.979 13.1398 182.387 13.8618C182.796 14.5684 183 15.3902 183 16.3272V24.3917H179.913V17.0415C179.913 16.4885 179.811 16.0123 179.607 15.6129C179.403 15.2135 179.12 14.9063 178.759 14.6912C178.397 14.4608 177.957 14.3456 177.439 14.3456C176.952 14.3456 176.52 14.4608 176.143 14.6912C175.766 14.9063 175.475 15.2135 175.271 15.6129C175.067 16.0123 174.965 16.4885 174.965 17.0415V24.3917H171.878V17.0415C171.878 16.4885 171.776 16.0123 171.572 15.6129C171.368 15.2135 171.077 14.9063 170.7 14.6912C170.339 14.4608 169.907 14.3456 169.404 14.3456C168.917 14.3456 168.485 14.4608 168.108 14.6912C167.731 14.9063 167.44 15.2135 167.236 15.6129C167.032 16.0123 166.93 16.4885 166.93 17.0415V24.3917H163.843Z" fill="#00226C"/>
</svg>

<svg width="183" height="35" fill="none" xmlns="http://www.w3.org/2000/svg"><path d="M32.974 16.01v-.862C32.661 6.33 25.274 0 16.415 0 7.37 0 0 7.4 0 16.48s7.37 16.481 16.414 16.481c4.39 0 8.363-1.732 11.317-4.54L32.999 35l-.025-17.512c.027-.315 0-.644 0-.985v-.493Zm-16.56 11.545c-6.064 0-11.004-4.96-11.004-11.048 0-6.089 4.94-11.048 11.004-11.048 6.063 0 11.003 4.96 11.003 11.048s-4.94 11.048-11.003 11.048Z" fill="#0F67FE"/><path d="M49.392 29v-7.028l.494.6c-.44.675-1.052 1.198-1.838 1.566a6.188 6.188 0 0 1-2.568.53c-1.241 0-2.348-.284-3.322-.852a6.389 6.389 0 0 1-2.31-2.374c-.565-.998-.848-2.104-.848-3.318 0-1.229.283-2.334.848-3.317a6.44 6.44 0 0 1 2.31-2.35c.99-.585 2.089-.876 3.298-.876.974 0 1.838.192 2.592.576.77.368 1.375.89 1.815 1.566l-.307.623v-2.489h2.922V29h-3.087Zm-3.582-7.097c.707 0 1.327-.161 1.861-.484.534-.322.95-.768 1.25-1.336.313-.568.47-1.221.47-1.959 0-.721-.157-1.367-.47-1.935a3.31 3.31 0 0 0-1.25-1.36c-.534-.322-1.154-.483-1.861-.483-.691 0-1.312.169-1.862.506a3.46 3.46 0 0 0-1.296 1.337c-.298.553-.447 1.198-.447 1.935 0 .738.149 1.39.447 1.959a3.46 3.46 0 0 0 1.296 1.336c.55.323 1.17.484 1.862.484Zm15.29 2.765c-.99 0-1.854-.215-2.592-.645a4.348 4.348 0 0 1-1.674-1.797c-.377-.768-.565-1.667-.565-2.696v-7.673h3.087v7.42c0 .522.102.983.306 1.382.22.384.526.691.92.922.408.215.863.322 1.366.322.502 0 .95-.107 1.343-.322a2.44 2.44 0 0 0 .919-.945c.22-.4.33-.876.33-1.429v-7.35h3.087v12.535h-2.922v-2.466l.259.438c-.299.768-.793 1.344-1.485 1.728-.675.384-1.468.576-2.38.576Zm14.462 0c-.895 0-1.673-.146-2.333-.438-.66-.291-1.17-.706-1.531-1.244-.362-.553-.542-1.19-.542-1.912 0-.692.157-1.306.471-1.844.314-.553.801-1.013 1.461-1.382s1.492-.63 2.498-.784l4.194-.668v2.305l-3.605.598c-.613.108-1.068.3-1.367.577-.298.276-.448.637-.448 1.082 0 .43.165.776.495 1.037.346.246.77.37 1.273.37.644 0 1.21-.131 1.696-.393a2.884 2.884 0 0 0 1.155-1.129c.283-.476.424-.998.424-1.567v-3.225c0-.538-.22-.983-.66-1.337-.424-.368-.99-.553-1.696-.553-.66 0-1.25.177-1.768.53a2.973 2.973 0 0 0-1.107 1.36l-2.521-1.198a4.306 4.306 0 0 1 1.178-1.705 6.047 6.047 0 0 1 1.932-1.153 6.799 6.799 0 0 1 2.403-.414c1.053 0 1.98.192 2.78.576.802.368 1.423.89 1.862 1.566.456.661.684 1.437.684 2.328v8.34h-2.922V22.25l.66-.046a5.33 5.33 0 0 1-1.178 1.36 5.368 5.368 0 0 1-1.556.829 6.37 6.37 0 0 1-1.932.276Zm10.958-.276V11.857h2.9v2.788l-.236-.415c.298-.937.761-1.59 1.39-1.958.644-.369 1.414-.553 2.31-.553h.753v2.673H92.53c-.88 0-1.587.269-2.121.806-.534.522-.801 1.26-.801 2.212v6.982H86.52Zm16.181.138c-1.445 0-2.568-.384-3.37-1.152-.785-.784-1.178-1.882-1.178-3.295v-5.53H95.94v-2.696h.235c.629 0 1.115-.161 1.461-.484.346-.322.518-.79.518-1.405V9h3.087v2.857h2.946v2.696h-2.946v5.369c0 .414.071.768.212 1.06.157.291.393.514.707.668.33.153.746.23 1.249.23.11 0 .236-.008.377-.023.157-.015.307-.03.448-.046v2.58c-.22.031-.471.062-.754.093a7.44 7.44 0 0 1-.778.046Zm3.961-.138v-2.443l7.446-8.433.471 1.037h-7.587v-2.696h10.321v2.466l-7.305 8.433-.471-1.037h7.823v2.673h-10.698ZM120.292 29V11.857h2.898v2.489l-.282-.623a4.382 4.382 0 0 1 1.79-1.566c.754-.384 1.626-.576 2.616-.576 1.21 0 2.301.292 3.275.875a6.436 6.436 0 0 1 2.309 2.35c.582.984.872 2.09.872 3.318 0 1.214-.282 2.32-.848 3.318a6.384 6.384 0 0 1-2.309 2.374c-.974.568-2.082.852-3.323.852a6.188 6.188 0 0 1-2.568-.53 4.526 4.526 0 0 1-1.838-1.567l.495-.599V29h-3.087Zm6.645-7.097c.707 0 1.335-.161 1.885-.484a3.29 3.29 0 0 0 1.272-1.336c.315-.568.472-1.221.472-1.959 0-.737-.157-1.382-.472-1.935a3.29 3.29 0 0 0-1.272-1.337c-.55-.337-1.178-.506-1.885-.506a3.56 3.56 0 0 0-1.838.483 3.47 3.47 0 0 0-1.272 1.36c-.299.568-.448 1.213-.448 1.935 0 .738.149 1.39.448 1.959a3.513 3.513 0 0 0 1.272 1.336 3.56 3.56 0 0 0 1.838.484Zm10.365 2.489V11.857h2.898v2.788l-.235-.415c.298-.937.761-1.59 1.39-1.958.644-.369 1.414-.553 2.309-.553h.754v2.673h-1.107c-.88 0-1.587.269-2.121.806-.534.522-.801 1.26-.801 2.212v6.982h-3.087Zm16.259.276c-1.257 0-2.403-.284-3.44-.852a6.655 6.655 0 0 1-2.451-2.328c-.597-.983-.895-2.104-.895-3.364 0-1.26.298-2.38.895-3.364a6.655 6.655 0 0 1 2.451-2.327c1.021-.568 2.168-.852 3.44-.852 1.257 0 2.396.284 3.417.852a6.468 6.468 0 0 1 2.427 2.327c.613.968.919 2.09.919 3.364 0 1.26-.306 2.381-.919 3.364a6.655 6.655 0 0 1-2.451 2.328c-1.021.568-2.152.852-3.393.852Zm0-2.765c.691 0 1.296-.161 1.815-.484a3.34 3.34 0 0 0 1.248-1.336c.315-.584.472-1.237.472-1.959 0-.737-.157-1.382-.472-1.935a3.34 3.34 0 0 0-1.248-1.337c-.519-.337-1.124-.506-1.815-.506-.707 0-1.327.169-1.861.506a3.515 3.515 0 0 0-1.273 1.337c-.298.553-.447 1.198-.447 1.935 0 .722.149 1.375.447 1.959a3.515 3.515 0 0 0 1.273 1.336c.534.323 1.154.484 1.861.484Zm10.282 2.489V11.857h2.898v2.903l-.33-.483c.236-.907.707-1.583 1.414-2.028.707-.446 1.54-.668 2.498-.668 1.052 0 1.979.269 2.78.806.802.538 1.32 1.244 1.556 2.12l-.872.069c.392-.998.982-1.743 1.767-2.235.785-.507 1.689-.76 2.71-.76.911 0 1.72.2 2.427.599.722.4 1.288.96 1.696 1.682.409.706.613 1.528.613 2.465v8.065h-3.087v-7.35c0-.554-.102-1.03-.306-1.43a2.22 2.22 0 0 0-.848-.92c-.362-.231-.802-.346-1.32-.346-.487 0-.919.115-1.296.345a2.174 2.174 0 0 0-.872.922c-.204.4-.306.875-.306 1.428v7.35h-3.087v-7.35c0-.553-.102-1.029-.306-1.428a2.174 2.174 0 0 0-.872-.922c-.361-.23-.793-.345-1.296-.345-.487 0-.919.115-1.296.345a2.174 2.174 0 0 0-.872.922c-.204.4-.306.875-.306 1.428v7.35h-3.087Z" fill="#00226C"/></svg>
